ps/diamond.svg

<svg version="1.1" xmlns="http://www.w3.org/2000/svg" viewBox="0 0 28 32" height="1em" width="1em">
  <path d="M27.467 10.667l-6.293-7.467h-14.4l-6.293 7.467-0.48 0.533 0.427 0.533 13.547 17.067 13.973-17.6-0.48-0.533zM26.080 10.667h-10.72l5.333-6.347 5.387 6.347zM13.92 10.667l-5.547-6.4h10.987l-5.44 6.4zM7.147 4.427l5.387 6.24h-10.667l5.28-6.24zM13.44 11.733v14.667l-11.68-14.667h11.68zM14.507 26.4v-14.667h11.627l-11.627 14.667z" fill="#000000"/>
</svg>

<svg xmlns="http://www.w3.org/2000/svg" viewBox="0 0 28 32" height="1em" width="1em">
  <path d="M27.467 10.667 21.174 3.2h-14.4L.481 10.667l-.48.533.427.533L13.975 28.8l13.973-17.6-.48-.533zm-1.387 0H15.36l5.333-6.347 5.387 6.347zm-12.16 0-5.547-6.4H19.36l-5.44 6.4zm-6.773-6.24 5.387 6.24H1.867l5.28-6.24zm6.293 7.306V26.4L1.76 11.733h11.68zM14.507 26.4V11.733h11.627L14.507 26.4z"/>
</svg>
